tools/download-figma-icons/icons/outlined-large/company.svg

<svg width="64" height="64" viewBox="0 0 64 64" fill="none" xmlns="http://www.w3.org/2000/svg">
<path fill-rule="evenodd" clip-rule="evenodd" d="M7 7.5C7 5.019 9.019 3 11.5 3H52.5C54.981 3 57 5.019 57 7.5V50.89C57 53.131 55.325 55.049 53.104 55.35L11.406 60.999C8.968 60.949 7 58.95 7 56.5V7.5ZM11.5 64H11.602L53.507 58.322C57.209 57.82 60 54.625 60 50.89V7.5C60 3.364 56.636 0 52.5 0H11.5C7.364 0 4 3.364 4 7.5V56.5C4 60.636 7.364 64 11.5 64ZM38.4814 26.8332C38.2284 23.1802 35.9564 21.2002 32.4844 21.2002C29.0754 21.2002 26.6134 23.5532 25.9814 26.8332H38.4814ZM32.3174 42.0002C25.0204 42.0002 19.5004 36.5322 19.5004 29.0002C19.5004 21.5282 25.0204 16.0002 32.2544 16.0002C40.5034 16.0002 44.5004 21.8922 44.5004 29.0002C44.5004 29.4862 44.4364 30.6402 44.3734 31.3082H25.7814C26.2894 34.3462 29.1444 36.7152 32.3174 36.7152C35.1724 36.7152 38.2814 35.2572 39.6774 32.9482L44.1824 36.4712C41.2004 40.0552 37.7744 42.0002 32.3174 42.0002Z" fill="black"/>
</svg>

<svg width="64" height="64" viewBox="0 0 64 64" fill="none" xmlns="http://www.w3.org/2000/svg"><path fill-rule="evenodd" clip-rule="evenodd" d="M7 7.5C7 5.019 9.019 3 11.5 3h41C54.981 3 57 5.019 57 7.5v43.39a4.517 4.517 0 0 1-3.896 4.46l-41.698 5.649A4.505 4.505 0 0 1 7 56.5v-49ZM11.5 64h.102l41.905-5.678C57.209 57.82 60 54.625 60 50.89V7.5C60 3.364 56.636 0 52.5 0h-41C7.364 0 4 3.364 4 7.5v49c0 4.136 3.364 7.5 7.5 7.5Zm26.981-37.167c-.253-3.653-2.525-5.633-5.997-5.633-3.409 0-5.87 2.353-6.503 5.633h12.5ZM32.317 42C25.02 42 19.5 36.532 19.5 29c0-7.472 5.52-13 12.754-13 8.25 0 12.246 5.892 12.246 13 0 .486-.064 1.64-.127 2.308H25.781c.508 3.038 3.363 5.407 6.536 5.407 2.855 0 5.964-1.458 7.36-3.767l4.505 3.523c-2.982 3.584-6.408 5.53-11.865 5.53Z" fill="currentColor"/></svg>
